X:59
T:How can we abstain from Whisky
T:'Cia mar is urra' sinn fuireach o'n Dram
R:Jig
S:Simon Fraser Collection
N:No.61
O:Scottish
M:6/8
L:1/8
K:G
(3D/E/F/|G2G GDB,|d2e dBG/F/|G2A B>AB|E2F G2:|
D|BGd g2g|f>ed edB|GBd g2g|fed e2 (3d/e/f/|g2g gdB|
e2e dBG|G2A B>AB|E2F G2||

